X:1
T:Title
%%score { 1 | 2 }
L:1/8
M:3/4
K:Bb
V:1 treble nm="Grand Piano"
V:2 bass 
V:1
 z2 z2[Q:1/4=88] [DB][DF] | [_DG]2 [=DF]2 [DB][DF] | [_DG]2 [=DF]2 [DB][DF] | [EG]2 [FB]2 [=Ec]G | %4
 c4 _d2 |[M:4/4] [Fd]2 [Fd]>[Ec] [DB] [DF]2 F | BB B>G [EG] [DF]3 | G2 B>G [B,DF] [DFB]3 | %8
[M:19/16] [=EB][EG][EA]Bc/-c/-c/-c/-c/-c-<cc |[M:4/4] [Fd]2 [Fd]>[Ec] [DB] [DF]2 F | %10
 BB B>G [EG] [DF]3 | G2 B>G [DF] [Fd]3 | [=Ed]2 [_Ec]2 [DB]4 |] %13
V:2
 z2 z2 [B,,F,][B,,F,] | [B,,=E,]2 [B,,F,]2 [B,,F,][B,,F,] | [B,,=E,]2 [B,,F,]2 [B,,F,][B,,B,] | %3
 [E,B,]2 [D,B,]2 [C,B,][G,B,=E] | [F,A,F]6 | %5
[M:4/4] [B,,B,]2 [B,,B,]>[B,,B,] [B,,B,] [B,,B,]2 [D,B,] | %6
 [E,G,E][E,G,E] [E,G,E]>[E,B,E] [B,,B,] [B,,B,]3 | [E,B,E]2 [E,G,E]>[E,B,E] B,, B,,3 | %8
[M:19/16] [C,C][C,C][C,C][G,B,=E][F,A,_E]/-[F,A,E]/-[F,A,E]/-[F,A,E]/-[F,A,E]/-[F,A,E]-<[F,A,E][F,A,F] | %9
[M:4/4] [B,,B,]2 [B,,B,]>[B,,B,] [B,,B,] [B,,B,]2 [D,B,] | %10
 [E,G,E][E,G,E] [E,G,E]>[E,B,E] [B,,B,] [B,,B,]3 | [E,B,E]2 [E,G,E]>[E,B,E] [B,,B,] [B,,B,]3 | %12
 [C,B,]2 [F,A,]F, [B,,F,]4 |] %13

